X:9
T:Drumlanrick's Air
Z:Jack Campin - http://www.campin.me.uk
S:Blaikie MS (NLS MS.1578) p3, Blaikie #8
M:C|
L:1/8
V:1 midi program 1 74
V:2 midi program 1 46 bass middle = d transpose -24
Q:1/2=90
K:D
[V:1] A2|F2A2 E2A2|D2E2 F2 d2|c2BA Bcd2|F4   B4  |
[V:2] z2|d'4  c'4 |b2a2 d'2d2|a2z2 g2f2|d4   g4  |
%
[V:1]    ABAF AFED|E2FA B2 Bc|d2cB B3 A|A6      ||
[V:2]    f2d2 d2A2|c2d2 g2 g2|f2g2 d2d2|A6      ||
%
[V:1] cd|e2f2 ecBA|d2e2 f2 A2|B2Bc d2cB|B2Bc d2A2|
[V:2] z2|A2a2 a2g2|f2e2 d2 f2|g2g2 f2g2|g2g2 f2d2|
%
[V:1]    B2AF A2A2|B2Bc d2 cB|ABAF EFED|D6      |]
[V:2]    D2d2 D2d2|G2g2 G2 g2|f2d2 A2a2|d6      |]

% Murdoch Henderson's version - where did he get this?
%X:1
%T:Drumlenricks Ayr
%Z:Jack Campin: "Embro, Embro", transcription (c) 2001
%F:05cheese/abc/DrumAyr.abc
%S:Blaikie Tablature MS, 1692, via MH, MS.21682
%M:C|
%L:1/8
%Q:1/2=80
%K:G
% d2 | B2  d2   A2 d2  | G3       A  B2   g2 | f2   (ed) (ef) g2   | B4    e4  |
%     (de)(dB) (dB)AG  |[A2D2] (B^c) e2  (ef)|[g2B2](fe) (e3     d)|[d6A6D6]  ||
%(ef)| a3  b   (af)(ed)| g3       a [b2B2]d2 | e2 (3(efg) f3     e | e6 (3(efg)|
%     (de)dB   [d3G3]d | e2  (3(efg) f3    e |(de)(dB)    AB([DA]G)| [G6G,6]  |]
W:Transcription (c) Jack Campin 2009, no mirroring or republication without permission

